src/actions/24/dialog-cancel.svg

<svg xmlns="http://www.w3.org/2000/svg" viewBox="0 0 24 24">
  <defs id="defs3051">
    <style type="text/css" id="current-color-scheme">
      .ColorScheme-Text {
        color:#363636;
      }
      </style>
  </defs>
 <path style="fill:currentColor;fill-opacity:1;stroke:none" 
     d="M 12 4 C 9.972402 4 8.12868 4.756694 6.71875 6 C 6.592511 6.11132 6.46272 6.22478 6.34375 6.34375 L 6 6.71875 C 4.756694 8.12868 4 9.972402 4 12 C 4 16.41828 7.58172 20 12 20 C 14.027598 20 15.87132 19.243306 17.28125 18 L 17.65625 17.65625 C 17.77522 17.53728 17.88868 17.407489 18 17.28125 C 19.243306 15.87132 20 14.027598 20 12 C 20 7.58172 16.41828 4 12 4 z M 12 5 C 15.86599 5 19 8.13401 19 12 C 19 13.75366 18.346785 15.334268 17.28125 16.5625 L 7.4375 6.71875 C 8.665731 5.653215 10.24634 5 12 5 z M 6.71875 7.4375 L 16.5625 17.28125 C 15.334268 18.346785 13.75366 19 12 19 C 8.13401 19 5 15.86599 5 12 C 5 10.24634 5.653215 8.665731 6.71875 7.4375 z "
     class="ColorScheme-Text"
     />
</svg>

<svg xmlns="http://www.w3.org/2000/svg" viewBox="0 0 24 24">
    <path d="M12 4a7.952 7.952 0 0 0-5.281 2c-.126.111-.256.225-.375.344L6 6.719A7.952 7.952 0 0 0 4 12a8 8 0 0 0 8 8 7.952 7.952 0 0 0 5.281-2l.375-.344c.12-.119.233-.249.344-.375A7.952 7.952 0 0 0 20 12a8 8 0 0 0-8-8zm0 1a7 7 0 0 1 7 7 6.921 6.921 0 0 1-1.719 4.563L7.438 6.719A6.921 6.921 0 0 1 12 5zM6.719 7.438l9.843 9.843A6.921 6.921 0 0 1 12 19a7 7 0 0 1-7-7c0-1.754.653-3.334 1.719-4.562z" style="fill:currentColor;fill-opacity:1;stroke:none;color:#050505;opacity:.7"/>
</svg>
